public/Assets/TanahPendhopo.svg

<svg xmlns="http://www.w3.org/2000/svg" width="1155" height="388" fill="none" viewBox="0 0 1155 388"><path fill="#4f5b51" fill-rule="evenodd" d="M472.426 200.44c76.41-4.872 143.266 15.869 190.625 30.568 39.017 12.109 47.357 27.795 46.067 42.894-.988 11.574-34.515 20.824-52.431 31.633-16.612 10.023-18.224 21.221-48.617 29.333-35.917 9.587-81.141 18.43-135.644 19.85-57.127 1.489-109.445-5.749-159.833-12.15-57.737-7.335-154.894-12.234-151.909-27.453 3.436-17.511 121.921-19.955 164.068-34.523 24.417-8.441 3.452-19.991 20.665-29.334 33.995-18.451 43.406-45.488 127.009-50.818" clip-rule="evenodd"/><path fill="#4f5b51" fill-rule="evenodd" d="M393.136 39.55C476.203 31.872 547.739.638 630.073 9.336c84.035 8.878 170.17 40.263 164.639 72.636-5.953 34.839-159.577 40.937-189.694 74.006-29.422 32.305 91.993 73.254 32.047 99.092-54.598 23.533-171.693 7.899-243.929-7.766-60.33-13.083-36.551-54.574-98.581-66.51-83.477-16.063-211.156 20.364-274.789-5.335-53.512-21.611 14.176-58.301 54.927-83.458 34.694-21.417 92.557-35.438 154.089-45.573 51.659-8.509 109.513-1.81 164.354-6.878" clip-rule="evenodd"/><path fill="#4f5b51" fill-rule="evenodd" d="M551.733 193.342c13.857-10.061 56.556-8.423 84.554-13.454 31.89-5.729 45.806-23.572 90.63-18.02 44.867 5.557 58.27 32.13 101.976 41.876 83.947 18.721 186.827 9.469 252.687 37.216 59.11 24.897 42.33 56.088 16.79 76.299-24.5 19.383-79.06 33.226-150.542 29.542-66.48-3.426-124.468-35.608-193.378-47.268-52.742-8.925-105.855 4.378-151.245-11.047-45.162-15.347-31.585-36.132-41.494-54.45-7.757-14.338-24.455-30.183-9.978-40.694m-186.685-16.554c21.216-10.48-2.073-35.946 24.705-42.282 22.242-5.263 34.623 16.616 55.281 23.357 20.936 6.83 65.9 3.375 65.545 16.066-.428 15.297-55.985 14.713-66.805 28.979-8.771 11.565 26.607 23.447 18.215 35.085-8.68 12.04-34.804 19.59-59.436 22.089-26.386 2.677-55.207-.223-77.057-8.24-21.384-7.846-32.315-21.039-38.406-34.125-5.509-11.833-10.592-26.747 6.011-35.464 17.334-9.1 54.08 3.362 71.947-5.465" clip-rule="evenodd"/><path fill="#bfb096" fill-rule="evenodd" d="M351.175 220.348c5.585-5.093 25.49-5.803 38.038-9.071 14.292-3.722 19.263-12.389 40.474-11.375 21.232 1.014 29.63 12.753 50.67 15.73 40.411 5.718 87.278-2.052 120.064 8.429 29.418 9.404 24.224 24.295 14.065 34.447-9.742 9.736-33.864 17.959-67.262 18.716-31.062.704-60.566-12.082-93.432-15.075-25.156-2.29-48.649 5.635-70.937.109-22.176-5.498-17.605-15.504-23.704-23.572-4.774-6.316-13.812-13.017-7.976-18.338" clip-rule="evenodd"/><path fill="url(#a)" fill-rule="evenodd" d="M551.733 185.521c13.857-10.06 56.556-8.423 84.554-13.453 31.89-5.729 45.806-23.572 90.63-18.021 44.867 5.558 58.27 32.131 101.976 41.877 83.947 18.721 186.827 9.469 252.687 37.216 59.11 24.897 42.33 56.087 16.79 76.299-24.5 19.383-79.06 33.226-150.542 29.542-66.48-3.426-124.468-35.608-193.378-47.268-52.742-8.925-105.855 4.377-151.245-11.047-45.162-15.347-31.585-36.133-41.494-54.45-7.757-14.338-24.455-30.183-9.978-40.695" clip-rule="evenodd"/><path fill="url(#b)" fill-rule="evenodd" d="M472.426 192.62c76.41-4.872 143.266 15.869 190.625 30.568 39.017 12.109 47.357 27.795 46.067 42.894-.988 11.574-34.515 20.824-52.431 31.633-16.612 10.023-18.224 21.221-48.617 29.333-35.917 9.587-81.141 18.43-135.644 19.85-57.127 1.489-109.445-5.749-159.833-12.151-57.737-7.334-154.894-12.233-151.909-27.452 3.436-17.511 121.921-19.955 164.068-34.524 24.417-8.44 3.452-19.99 20.665-29.333 33.995-18.451 43.406-45.488 127.009-50.818" clip-rule="evenodd"/><path fill="url(#c)" fill-rule="evenodd" d="M365.048 168.968c21.216-10.48-2.073-35.946 24.705-42.282 22.242-5.263 34.623 16.616 55.281 23.357 20.936 6.83 65.9 3.376 65.545 16.066-.428 15.297-55.985 14.713-66.805 28.979-8.771 11.565 26.607 23.447 18.215 35.085-8.68 12.041-34.804 19.59-59.436 22.089-26.386 2.677-55.207-.222-77.057-8.24-21.384-7.845-32.315-21.039-38.406-34.125-5.509-11.833-10.592-26.747 6.011-35.464 17.334-9.1 54.08 3.362 71.947-5.465" clip-rule="evenodd"/><path fill="url(#d)" fill-rule="evenodd" d="M393.136 31.73c83.067-7.678 154.603-38.912 236.937-30.214 84.035 8.877 170.17 40.263 164.639 72.636-5.953 34.838-159.577 40.936-189.694 74.005-29.422 32.306 91.993 73.255 32.047 99.093-54.598 23.533-171.693 7.899-243.929-7.766-60.33-13.083-36.551-54.574-98.581-66.51-83.477-16.063-211.156 20.364-274.789-5.335-53.512-21.611 14.176-58.301 54.927-83.458 34.694-21.417 92.557-35.438 154.089-45.573 51.659-8.509 109.513-1.81 164.354-6.878" clip-rule="evenodd"/><path fill="url(#e)" fill-rule="evenodd" d="M712.294 271.547c-25.009-2.506-40.415-5.904-62.047-8.941-24.639-3.458-64.374-7-73.307-10.059-8.942-3.063 35.447-.678 34.922-3.087-1.008-4.628-63.056-14.563-39.181-16.464 21.423-1.706 87.611 3.846 136.856 8.685 47.228 4.641 97.019 11.095 121.028 16.658 22.331 5.174-13.335 5.821-5.506 10.111 5.992 3.283 54.132 9.541 44.661 11.341-9.423 1.791-54.57-2.112-84.878-3.699-23.723-1.242-46.42-1.927-72.548-4.545" clip-rule="evenodd"/><path fill="url(#f)" fill-rule="evenodd" d="M351.175 217.34c5.585-5.093 25.49-5.803 38.038-9.071 14.292-3.722 19.263-12.389 40.474-11.375 21.232 1.014 29.63 12.752 50.67 15.73 40.411 5.718 87.278-2.052 120.064 8.429 29.418 9.404 24.224 24.295 14.065 34.447-9.742 9.736-33.864 17.959-67.262 18.716-31.062.704-60.566-12.082-93.432-15.075-25.156-2.29-48.649 5.635-70.937.109-22.176-5.498-17.605-15.504-23.704-23.572-4.774-6.316-13.812-13.018-7.976-18.338" clip-rule="evenodd"/><path fill="url(#g)" fill-rule="evenodd" d="M445.762 46.1c5.278-4.137 27.314-3.93 40.683-6.219 15.228-2.605 19.161-9.834 42.97-8.096 23.832 1.74 35.355 12.151 59.336 15.567 46.061 6.56 96.817 1.819 135.267 12.15 34.5 9.271 31.469 21.829 22.034 30.118-9.049 7.95-34.391 14.013-71.444 13.293-34.462-.67-69.682-12.844-106.837-16.758-28.438-2.995-53.135 2.838-78.977-2.814-25.713-5.624-22.473-14.018-30.757-21.187-6.485-5.612-17.79-11.73-12.275-16.053" clip-rule="evenodd"/><path fill="url(#h)" fill-rule="evenodd" d="M219.758 157.867c-14.299-1.77-23.359-6.648-35.845-9.954-14.223-3.766-36.882-5.681-42.283-10.734-5.407-5.057 19.693-6.126 19.073-10.976-1.191-9.315-37.173-21.3-24.105-28.378 11.725-6.35 49.422-3.87 77.566-.576 26.991 3.158 55.658 9.674 69.814 17.822 13.167 7.578-6.653 13.672-1.7 21.384 3.79 5.902 31.51 12.241 26.468 17.184-5.017 4.917-30.745 2.989-47.877 3.803-13.411.637-26.172 2.275-41.111.425" clip-rule="evenodd"/><path fill="url(#i)" fill-rule="evenodd" d="M882.078 301.638c-14.298-1.77-23.359-6.648-35.845-9.954-14.222-3.766-36.882-5.682-42.283-10.734-5.407-5.057 19.693-6.127 19.073-10.976-1.191-9.315-37.173-21.3-24.105-28.378 11.725-6.35 49.422-3.87 77.566-.577 26.991 3.159 55.658 9.674 69.814 17.823 13.167 7.578-6.652 13.671-1.7 21.383 3.791 5.903 31.51 12.242 26.468 17.184-5.016 4.918-30.745 2.99-47.877 3.804-13.41.637-26.171 2.275-41.111.425" clip-rule="evenodd"/><path fill="url(#j)" fill-rule="evenodd" d="M387.083 109.528c-24.144 5.114-41.092 5.656-62.949 8.858-24.895 3.646-62.764 12.391-73.81 11.173-11.056-1.218 29.49-13.196 26.347-16.403-6.038-6.16-70.101 1.3-51.855-9.621 16.371-9.8 79.062-24.854 126.499-35.058 45.493-9.786 95.201-17.908 121.913-18.377 24.845-.436-4.866 12.793 6.614 16.122 8.787 2.547 56.868-5.28 50.8.523-6.038 5.774-48.928 15.88-76.566 24.116-21.634 6.447-41.768 13.323-66.993 18.667" clip-rule="evenodd"/><path fill="url(#k)" fill-rule="evenodd" d="M455.457 134.346c-10.206-8.61-20.38-12.615-31.03-19.454-12.13-7.789-27.425-21.777-35.607-23.337-8.19-1.56 5.603 15.166.449 16.637-9.898 2.823-43.013-15.935-42.268-4.707.668 10.074 25.416 33.617 45.315 50.638 19.084 16.323 42.473 32.44 58.89 38.494 15.269 5.631 9.559-9.605 20.1-9.365 8.069.184 30.723 15.753 32.619 10.567 1.886-5.16-15.237-21.138-24.568-32.588-7.304-8.962-13.236-17.889-23.9-26.885" clip-rule="evenodd"/><defs><linearGradient id="a" x1="548.066" x2="922.666" y1="189.031" y2="514.337" gradientUnits="userSpaceOnUse"><stop offset=".293" stop-color="#7a937f"/><stop offset=".962" stop-color="#4a614f"/></linearGradient><linearGradient id="b" x1="434.93" x2="434.93" y1="191.895" y2="347.095" gradientUnits="userSpaceOnUse"><stop offset=".654" stop-color="#7a937f"/><stop offset=".856" stop-color="#4a614f"/></linearGradient><linearGradient id="c" x1="331.841" x2="380.846" y1="150.191" y2="268.717" gradientUnits="userSpaceOnUse"><stop offset=".087" stop-color="#4a614f"/><stop offset=".692" stop-color="#7a937f"/></linearGradient><linearGradient id="d" x1="397.482" x2="397.482" y1="0" y2="259.268" gradientUnits="userSpaceOnUse"><stop offset=".442" stop-color="#4a614f"/><stop offset="1" stop-color="#7a937f"/></linearGradient><linearGradient id="e" x1="720.512" x2="723.194" y1="272.322" y2="242.822" gradientUnits="userSpaceOnUse"><stop stop-color="#887557"/><stop offset=".231" stop-color="#eecd99"/></linearGradient><linearGradient id="f" x1="349.766" x2="552.578" y1="219.076" y2="351.687" gradientUnits="userSpaceOnUse"><stop offset=".889" stop-color="#eecd99"/></linearGradient><linearGradient id="g" x1="444.515" x2="675.809" y1="47.532" y2="198.766" gradientUnits="userSpaceOnUse"><stop offset=".889" stop-color="#eecd99"/><stop offset="1" stop-color="#887557"/></linearGradient><linearGradient id="h" x1="224.45" x2="229.895" y1="158.351" y2="98.474" gradientUnits="userSpaceOnUse"><stop offset=".889" stop-color="#eecd99"/><stop offset="1" stop-color="#887557"/></linearGradient><linearGradient id="i" x1="886.771" x2="892.215" y1="302.122" y2="242.245" gradientUnits="userSpaceOnUse"><stop stop-color="#887557"/><stop offset=".25" stop-color="#eecd99"/></linearGradient><linearGradient id="j" x1="394.963" x2="384.263" y1="107.779" y2="60.805" gradientUnits="userSpaceOnUse"><stop offset=".889" stop-color="#eecd99"/><stop offset="1" stop-color="#887557"/></linearGradient><linearGradient id="k" x1="458.71" x2="420.365" y1="137.209" y2="179.698" gradientUnits="userSpaceOnUse"><stop offset=".889" stop-color="#eecd99"/><stop offset="1" stop-color="#887557"/></linearGradient></defs></svg>

<svg width="1155" height="388" viewBox="0 0 1155 388" fill="none" xmlns="http://www.w3.org/2000/svg">
<path fill-rule="evenodd" clip-rule="evenodd" d="M472.426 200.44C548.836 195.568 615.692 216.309 663.051 231.008C702.068 243.117 710.408 258.803 709.118 273.902C708.13 285.476 674.603 294.726 656.687 305.535C640.075 315.558 638.463 326.756 608.07 334.868C572.153 344.455 526.929 353.298 472.426 354.718C415.299 356.207 362.981 348.969 312.593 342.568C254.856 335.233 157.699 330.334 160.684 315.115C164.12 297.604 282.605 295.16 324.752 280.592C349.169 272.151 328.204 260.601 345.417 251.258C379.412 232.807 388.823 205.77 472.426 200.44Z" fill="#4F5B51"/>
<path fill-rule="evenodd" clip-rule="evenodd" d="M393.136 39.5497C476.203 31.8717 547.739 0.638269 630.073 9.3361C714.108 18.2135 800.243 49.5987 794.712 81.9723C788.759 116.811 635.135 122.909 605.018 155.978C575.596 188.283 697.011 229.232 637.065 255.07C582.467 278.603 465.372 262.969 393.136 247.304C332.806 234.221 356.585 192.73 294.555 180.794C211.078 164.731 83.3995 201.158 19.766 175.459C-33.746 153.848 33.9415 117.158 74.6927 92.0011C109.387 70.5837 167.25 56.5631 228.782 46.4281C280.441 37.9192 338.295 44.6187 393.136 39.5497Z" fill="#4F5B51"/>
<path fill-rule="evenodd" clip-rule="evenodd" d="M551.733 193.342C565.59 183.281 608.289 184.919 636.287 179.888C668.177 174.159 682.093 156.316 726.917 161.868C771.784 167.425 785.187 193.998 828.893 203.744C912.84 222.465 1015.72 213.213 1081.58 240.96C1140.69 265.857 1123.91 297.048 1098.37 317.259C1073.87 336.642 1019.31 350.485 947.828 346.801C881.348 343.375 823.36 311.193 754.45 299.533C701.708 290.608 648.595 303.911 603.205 288.486C558.043 273.139 571.62 252.354 561.711 234.036C553.954 219.698 537.256 203.853 551.733 193.342Z" fill="#4F5B51"/>
<path fill-rule="evenodd" clip-rule="evenodd" d="M365.048 176.788C386.264 166.308 362.975 140.842 389.753 134.506C411.995 129.243 424.376 151.122 445.034 157.863C465.97 164.693 510.934 161.238 510.579 173.929C510.151 189.226 454.594 188.642 443.774 202.908C435.003 214.473 470.381 226.355 461.989 237.993C453.309 250.033 427.185 257.583 402.553 260.082C376.167 262.759 347.346 259.859 325.496 251.842C304.112 243.996 293.181 230.803 287.09 217.717C281.581 205.884 276.498 190.97 293.101 182.253C310.435 173.153 347.181 185.615 365.048 176.788Z" fill="#4F5B51"/>
<path fill-rule="evenodd" clip-rule="evenodd" d="M351.175 220.348C356.76 215.255 376.665 214.545 389.213 211.277C403.505 207.555 408.476 198.888 429.687 199.902C450.919 200.916 459.317 212.655 480.357 215.632C520.768 221.35 567.635 213.58 600.421 224.061C629.839 233.465 624.645 248.356 614.486 258.508C604.744 268.244 580.622 276.467 547.224 277.224C516.162 277.928 486.658 265.142 453.792 262.149C428.636 259.859 405.143 267.784 382.855 262.258C360.679 256.76 365.25 246.754 359.151 238.686C354.377 232.37 345.339 225.669 351.175 220.348Z" fill="#BFB096"/>
<path fill-rule="evenodd" clip-rule="evenodd" d="M551.733 185.521C565.59 175.461 608.289 177.098 636.287 172.068C668.177 166.339 682.093 148.496 726.917 154.047C771.784 159.605 785.187 186.178 828.893 195.924C912.84 214.645 1015.72 205.393 1081.58 233.14C1140.69 258.037 1123.91 289.227 1098.37 309.439C1073.87 328.822 1019.31 342.665 947.828 338.981C881.348 335.555 823.36 303.373 754.45 291.713C701.708 282.788 648.595 296.09 603.205 280.666C558.043 265.319 571.62 244.533 561.711 226.216C553.954 211.878 537.256 196.033 551.733 185.521Z" fill="url(#paint0_linear_199_63)"/>
<path fill-rule="evenodd" clip-rule="evenodd" d="M472.426 192.62C548.836 187.748 615.692 208.489 663.051 223.188C702.068 235.297 710.408 250.983 709.118 266.082C708.13 277.656 674.603 286.906 656.687 297.715C640.075 307.738 638.463 318.936 608.07 327.048C572.153 336.635 526.929 345.478 472.426 346.898C415.299 348.387 362.981 341.149 312.593 334.747C254.856 327.413 157.699 322.514 160.684 307.295C164.12 289.784 282.605 287.34 324.752 272.771C349.169 264.331 328.204 252.781 345.417 243.438C379.412 224.987 388.823 197.95 472.426 192.62Z" fill="url(#paint1_linear_199_63)"/>
<path fill-rule="evenodd" clip-rule="evenodd" d="M365.048 168.968C386.264 158.488 362.975 133.022 389.753 126.686C411.995 121.423 424.376 143.302 445.034 150.043C465.97 156.873 510.934 153.419 510.579 166.109C510.151 181.406 454.594 180.822 443.774 195.088C435.003 206.653 470.381 218.535 461.989 230.173C453.309 242.214 427.185 249.763 402.553 252.262C376.167 254.939 347.346 252.04 325.496 244.022C304.112 236.177 293.181 222.983 287.09 209.897C281.581 198.064 276.498 183.15 293.101 174.433C310.435 165.333 347.181 177.795 365.048 168.968Z" fill="url(#paint2_linear_199_63)"/>
<path fill-rule="evenodd" clip-rule="evenodd" d="M393.136 31.7295C476.203 24.0515 547.739 -7.18192 630.073 1.51591C714.108 10.3933 800.243 41.7786 794.712 74.1521C788.759 108.99 635.135 115.088 605.018 148.157C575.596 180.463 697.011 221.412 637.065 247.25C582.467 270.783 465.372 255.149 393.136 239.484C332.806 226.401 356.585 184.91 294.555 172.974C211.078 156.911 83.3995 193.338 19.766 167.639C-33.746 146.028 33.9415 109.338 74.6927 84.1809C109.387 62.7635 167.25 48.7429 228.782 38.6079C280.441 30.099 338.295 36.7985 393.136 31.7295Z" fill="url(#paint3_linear_199_63)"/>
<path fill-rule="evenodd" clip-rule="evenodd" d="M712.294 271.547C687.285 269.041 671.879 265.643 650.247 262.606C625.608 259.148 585.873 255.606 576.94 252.547C567.998 249.484 612.387 251.869 611.862 249.46C610.854 244.832 548.806 234.897 572.681 232.996C594.104 231.29 660.292 236.842 709.537 241.681C756.765 246.322 806.556 252.776 830.565 258.339C852.896 263.513 817.23 264.16 825.059 268.45C831.051 271.733 879.191 277.991 869.72 279.791C860.297 281.582 815.15 277.679 784.842 276.092C761.119 274.85 738.422 274.165 712.294 271.547Z" fill="url(#paint4_linear_199_63)"/>
<path fill-rule="evenodd" clip-rule="evenodd" d="M351.175 217.34C356.76 212.247 376.665 211.537 389.213 208.269C403.505 204.547 408.476 195.88 429.687 196.894C450.919 197.908 459.317 209.646 480.357 212.624C520.768 218.342 567.635 210.572 600.421 221.053C629.839 230.457 624.645 245.348 614.486 255.5C604.744 265.236 580.622 273.459 547.224 274.216C516.162 274.92 486.658 262.134 453.792 259.141C428.636 256.851 405.143 264.776 382.855 259.25C360.679 253.752 365.25 243.746 359.151 235.678C354.377 229.362 345.339 222.66 351.175 217.34Z" fill="url(#paint5_linear_199_63)"/>
<path fill-rule="evenodd" clip-rule="evenodd" d="M445.762 46.1009C451.04 41.9627 473.076 42.1693 486.445 39.8814C501.673 37.2755 505.606 30.0468 529.415 31.7854C553.247 33.5256 564.77 43.9364 588.751 47.352C634.812 53.9124 685.568 49.1706 724.018 59.5025C758.518 68.773 755.487 81.3307 746.052 89.6204C737.003 97.5705 711.661 103.633 674.608 102.913C640.146 102.243 604.926 90.0689 567.771 86.1553C539.333 83.1599 514.636 88.9929 488.794 83.3406C463.081 77.7167 466.321 69.3233 458.037 62.1538C451.552 56.5419 440.247 50.4246 445.762 46.1009Z" fill="url(#paint6_linear_199_63)"/>
<path fill-rule="evenodd" clip-rule="evenodd" d="M219.758 157.867C205.459 156.097 196.399 151.219 183.913 147.913C169.69 144.147 147.031 142.232 141.63 137.179C136.223 132.122 161.323 131.053 160.703 126.203C159.512 116.888 123.53 104.903 136.598 97.8254C148.323 91.475 186.02 93.9555 214.164 97.2487C241.155 100.407 269.822 106.923 283.978 115.071C297.145 122.649 277.325 128.743 282.278 136.455C286.068 142.357 313.788 148.696 308.746 153.639C303.729 158.556 278.001 156.628 260.869 157.442C247.458 158.079 234.697 159.717 219.758 157.867Z" fill="url(#paint7_linear_199_63)"/>
<path fill-rule="evenodd" clip-rule="evenodd" d="M882.078 301.638C867.78 299.868 858.719 294.99 846.233 291.684C832.011 287.918 809.351 286.002 803.95 280.95C798.543 275.893 823.643 274.823 823.023 269.974C821.832 260.659 785.85 248.674 798.918 241.596C810.643 235.246 848.34 237.726 876.484 241.019C903.475 244.178 932.142 250.693 946.298 258.842C959.465 266.42 939.646 272.513 944.598 280.225C948.389 286.128 976.108 292.467 971.066 297.409C966.05 302.327 940.321 300.399 923.189 301.213C909.779 301.85 897.018 303.488 882.078 301.638Z" fill="url(#paint8_linear_199_63)"/>
<path fill-rule="evenodd" clip-rule="evenodd" d="M387.083 109.528C362.939 114.642 345.991 115.184 324.134 118.386C299.239 122.032 261.37 130.777 250.324 129.559C239.268 128.341 279.814 116.363 276.671 113.156C270.633 106.996 206.57 114.456 224.816 103.535C241.187 93.7358 303.878 78.6813 351.315 68.4774C396.808 58.6915 446.516 50.5688 473.228 50.1C498.073 49.6639 468.362 62.8933 479.842 66.2216C488.629 68.7691 536.71 60.9428 530.642 66.7453C524.604 72.5187 481.714 82.6244 454.076 90.861C432.442 97.3081 412.308 104.184 387.083 109.528Z" fill="url(#paint9_linear_199_63)"/>
<path fill-rule="evenodd" clip-rule="evenodd" d="M455.457 134.346C445.251 125.736 435.077 121.731 424.427 114.892C412.297 107.103 397.002 93.1146 388.82 91.5553C380.63 89.9943 394.423 106.721 389.269 108.192C379.371 111.015 346.256 92.2573 347.001 103.485C347.669 113.559 372.417 137.102 392.316 154.123C411.4 170.446 434.789 186.563 451.206 192.617C466.475 198.248 460.765 183.012 471.306 183.252C479.375 183.436 502.029 199.005 503.925 193.819C505.811 188.659 488.688 172.681 479.357 161.231C472.053 152.269 466.121 143.342 455.457 134.346Z" fill="url(#paint10_linear_199_63)"/>
<defs>
<linearGradient id="paint0_linear_199_63" x1="548.066" y1="189.031" x2="922.666" y2="514.337" gradientUnits="userSpaceOnUse">
<stop offset="0.293269" stop-color="#7A937F"/>
<stop offset="0.961538" stop-color="#4A614F"/>
</linearGradient>
<linearGradient id="paint1_linear_199_63" x1="434.93" y1="191.895" x2="434.93" y2="347.095" gradientUnits="userSpaceOnUse">
<stop offset="0.653846" stop-color="#7A937F"/>
<stop offset="0.855769" stop-color="#4A614F"/>
</linearGradient>
<linearGradient id="paint2_linear_199_63" x1="331.841" y1="150.191" x2="380.846" y2="268.717" gradientUnits="userSpaceOnUse">
<stop offset="0.0865385" stop-color="#4A614F"/>
<stop offset="0.692308" stop-color="#7A937F"/>
</linearGradient>
<linearGradient id="paint3_linear_199_63" x1="397.482" y1="0" x2="397.482" y2="259.268" gradientUnits="userSpaceOnUse">
<stop offset="0.442308" stop-color="#4A614F"/>
<stop offset="1" stop-color="#7A937F"/>
</linearGradient>
<linearGradient id="paint4_linear_199_63" x1="720.512" y1="272.322" x2="723.194" y2="242.822" gradientUnits="userSpaceOnUse">
<stop stop-color="#887557"/>
<stop offset="0.230769" stop-color="#EECD99"/>
</linearGradient>
<linearGradient id="paint5_linear_199_63" x1="349.766" y1="219.076" x2="552.578" y2="351.687" gradientUnits="userSpaceOnUse">
<stop offset="0.889423" stop-color="#EECD99"/>
</linearGradient>
<linearGradient id="paint6_linear_199_63" x1="444.515" y1="47.5323" x2="675.809" y2="198.766" gradientUnits="userSpaceOnUse">
<stop offset="0.889423" stop-color="#EECD99"/>
<stop offset="1" stop-color="#887557"/>
</linearGradient>
<linearGradient id="paint7_linear_199_63" x1="224.45" y1="158.351" x2="229.895" y2="98.4738" gradientUnits="userSpaceOnUse">
<stop offset="0.889423" stop-color="#EECD99"/>
<stop offset="1" stop-color="#887557"/>
</linearGradient>
<linearGradient id="paint8_linear_199_63" x1="886.771" y1="302.122" x2="892.215" y2="242.245" gradientUnits="userSpaceOnUse">
<stop stop-color="#887557"/>
<stop offset="0.25" stop-color="#EECD99"/>
</linearGradient>
<linearGradient id="paint9_linear_199_63" x1="394.963" y1="107.779" x2="384.263" y2="60.8047" gradientUnits="userSpaceOnUse">
<stop offset="0.889423" stop-color="#EECD99"/>
<stop offset="1" stop-color="#887557"/>
</linearGradient>
<linearGradient id="paint10_linear_199_63" x1="458.71" y1="137.209" x2="420.365" y2="179.698" gradientUnits="userSpaceOnUse">
<stop offset="0.889423" stop-color="#EECD99"/>
<stop offset="1" stop-color="#887557"/>
</linearGradient>
</defs>
</svg>
